icon-themes/breeze_svg/cmd/sc_entergroup.svg

<svg viewBox="0 0 16 16" xmlns="http://www.w3.org/2000/svg">/&gt;<path d="m2 2v3h1v-2h2v-1h-2zm9 0v1h2v2h1v-2-1zm-5 2c-1.10457 0-2 .89543-2 2s.89543 2 2 2 2-.89543 2-2-.89543-2-2-2zm3 0v3h3v-3zm3 4-1 1-1 1-2 2v1 1h2l.59375-.59375.40625-.40625 1-1 1-1 1-1zm-7 1v3h2v-3zm6.6875.6875.59375.59375-.28125.28125-1.40625 1.40625v.03125l-1.28125 1.28125-.59375-.59375 1.875-1.90625zm-9.6875 1.3125v1 1 1h3v-1h-2v-1-1z" fill="#4d4d4d"/></svg>

<svg xmlns="http://www.w3.org/2000/svg" viewBox="0 0 16 16">
     />
 <path 
     style="fill:#4d4d4d" 
     d="M 2 2 L 2 5 L 3 5 L 3 3 L 5 3 L 5 2 L 3 2 L 2 2 z M 11 2 L 11 3 L 13 3 L 13 5 L 14 5 L 14 3 L 14 2 L 11 2 z M 6 4 C 4.89543 4 4 4.89543 4 6 C 4 7.10457 4.89543 8 6 8 C 7.10457 8 8 7.10457 8 6 C 8 4.89543 7.10457 4 6 4 z M 9 4 L 9 7 L 12 7 L 12 4 L 9 4 z M 12 8 L 11 9 L 10 10 L 8 12 L 8 13 L 8 14 L 10 14 L 10.59375 13.40625 L 11 13 L 12 12 L 13 11 L 14 10 L 12 8 z M 5 9 L 5 12 L 7 12 L 7 9 L 5 9 z M 11.6875 9.6875 L 12.28125 10.28125 L 12 10.5625 L 10.59375 11.96875 L 10.59375 12 L 9.3125 13.28125 L 8.71875 12.6875 L 10.59375 10.78125 L 11.6875 9.6875 z M 2 11 L 2 12 L 2 13 L 2 14 L 5 14 L 5 13 L 3 13 L 3 12 L 3 11 L 2 11 z "
     />
 </svg>
